Suru++-Ubuntu/apps/scalable/TeamViewer.svg

<svg width="256" height="256" version="1.1" viewBox="0 0 67.73 67.73" xmlns="http://www.w3.org/2000/svg" xmlns:xlink="http://www.w3.org/1999/xlink">
 <defs>
  <linearGradient id="linearGradient1108" x1="296" x2="296" y1="-212" y2="236" gradientUnits="userSpaceOnUse">
   <stop style="stop-color:#ffffff" offset="0"/>
   <stop style="stop-color:#ffffff;stop-opacity:.09803922" offset=".125"/>
   <stop style="stop-color:#000000;stop-opacity:.09803922" offset=".925"/>
   <stop style="stop-color:#000000;stop-opacity:.49803922" offset="1"/>
  </linearGradient>
  <clipPath id="clipPath1082-3-361">
   <path d="M 361.9375,-212 C 507.2348,-212 528,-191.28677 528,-46.125 V 70.125 C 528,215.28618 507.2348,236 361.9375,236 H 214.0625 C 68.7652,236 48,215.28618 48,70.125 V -46.125 C 48,-191.28677 68.7652,-212 214.0625,-212 Z" style="fill:#8c59d9"/>
  </clipPath>
  <linearGradient id="linearGradient1044" x1="88" x2="256" y1="28" y2="284" gradientTransform="matrix(.26970781 0 0 .26970781 -7.1289179 220.5605)" gradientUnits="userSpaceOnUse">
   <stop style="stop-color:#e8e8e8" offset="0"/>
   <stop style="stop-color:#f5f5f5" offset="1"/>
  </linearGradient>
  <filter id="filter4569" x="-.01" y="-.01" width="1.023" height="1.025" style="color-interpolation-filters:sRGB">
   <feGaussianBlur stdDeviation="1.16"/>
  </filter>
  <filter id="filter939" x="-.02" y="-.03" width="1.046" height="1.05" style="color-interpolation-filters:sRGB">
   <feGaussianBlur stdDeviation="2.32"/>
  </filter>
  <linearGradient id="k" x1="412.95" x2="412.86" y1="648.08" y2="376.45" gradientTransform="matrix(.05729538 0 0 .05729538 4.5709881 233.28591)" gradientUnits="userSpaceOnUse">
   <stop stop-color="#096fd2" offset="0"/>
   <stop stop-color="#0e8ee9" offset="1"/>
  </linearGradient>
  <linearGradient id="linearGradient937" x1="511.61" x2="511.61" y1="1026.9" y2="-.324" gradientTransform="matrix(.24245987 0 0 .24245987 3.9410082 1.9357984)" gradientUnits="userSpaceOnUse">
   <stop stop-color="#096fd2" offset="0"/>
   <stop stop-color="#0e8ee9" offset="1"/>
  </linearGradient>
 </defs>
 <g transform="translate(0,-229.26666)">
  <path transform="matrix(.26970779 0 0 .26970779 -1.9098094e-8 231.46531)" d="m162.53675 5.5680001c72.64865 0 83.03125 10.356615 83.03125 82.937505v58.125005c0 72.58059-10.3826 82.9375-83.03125 82.9375h-73.937496c-72.648654 0-83.031254-10.35691-83.031254-82.9375v-58.125005c0-72.58089 10.3826-82.937505 83.031254-82.937505z" style="filter:url(#filter939);opacity:.2"/>
  <path d="m43.837429 232.42763c19.593907 0 22.394176 2.79326 22.394176 22.36889v15.67677c0 19.57555-2.800269 22.36889-22.394176 22.36889h-19.941519c-19.593909 0-22.394177-2.79334-22.394177-22.36889v-15.67677c0-19.57563 2.8002682-22.36889 22.394177-22.36889z" style="fill:none;opacity:.1;stroke-linecap:round;stroke-linejoin:round;stroke-width:1.0788311;stroke:#000000"/>
  <path transform="matrix(.26970779 0 0 .26970779 -1.9098094e-8 231.46531)" d="m162.53675 3.5680001c72.64865 0 83.03125 10.356615 83.03125 82.937505v58.125005c0 72.58059-10.3826 82.9375-83.03125 82.9375h-73.937496c-72.648654 0-83.031254-10.35691-83.031254-82.9375v-58.125005c0-72.58089 10.3826-82.937505 83.031254-82.937505z" style="filter:url(#filter4569);opacity:.1"/>
  <path d="m43.837427 232.42763c19.593907 0 22.394175 2.79326 22.394175 22.36889v15.67677c0 19.57555-2.800268 22.36889-22.394175 22.36889h-19.94152c-19.593907 0-22.394176-2.79334-22.394176-22.36889v-15.67677c0-19.57563 2.8002682-22.36889 22.394176-22.36889z" style="fill:url(#linearGradient1044)"/>
  <path transform="matrix(.26458333 0 0 .26458333 0 229.26666)" d="m90.396484 11.90625c-9.256962 0-17.523629 0.164409-24.90039 0.597656-3.688377 0.216567-7.155041 0.499691-10.41211 0.863282-3.25706 0.36359-6.304672 0.807283-9.15625 1.34375-2.851581 0.536428-5.506606 1.167263-7.978515 1.902343-2.47192 0.735118-4.760837 1.57561-6.878907 2.535157-2.118069 0.959584-4.065418 2.03822-5.855468 3.248046-1.79005 1.209865-3.422287 2.551188-4.910156 4.03711-1.487861 1.485959-2.831479 3.116429-4.042969 4.904297-1.2115 1.787867-2.291004 3.732065-3.251953 5.847656-0.960951 2.115628-1.802833 4.401928-2.539063 6.871094-0.7362299 2.469165-1.3669568 5.122186-1.9042968 7.970703-0.5373301 2.848554-0.9814432 5.892764-1.3457031 9.146484-0.3642595 3.25372-0.6482245 6.715692-0.8652343 10.400391-0.4340402 7.369436-0.5996094 15.626685-0.5996094 24.875v59.251951c0 9.24828 0.1655692 17.5056 0.5996094 24.875 0.2170091 3.6847 0.5009744 7.14667 0.8652343 10.40039 0.3642596 3.25372 0.808373 6.29797 1.3457031 9.14649 0.53734 2.84851 1.1680669 5.50157 1.9042968 7.9707 0.73623 2.46917 1.578112 4.7555 2.539063 6.87109 0.960949 2.11563 2.040453 4.05979 3.251953 5.84766 1.21149 1.78787 2.555108 3.41834 4.042969 4.9043 1.487869 1.48596 3.120106 2.82724 4.910156 4.03711 1.79005 1.20986 3.737399 2.28846 5.855468 3.24804 2.11807 0.95959 4.406987 1.80004 6.878907 2.53516 2.471909 0.73512 5.126934 1.36588 7.978515 1.90234 2.851578 0.53643 5.89919 0.98012 9.15625 1.34375 3.257069 0.36359 6.723733 0.64672 10.41211 0.86328 7.376761 0.43321 15.643428 0.59766 24.90039 0.59766h75.369136c9.25698 0 17.52168-0.16441 24.89844-0.59766 3.68838-0.21656 7.15504-0.49965 10.41211-0.86328 3.25706-0.36359 6.30467-0.80732 9.15625-1.34375 2.85158-0.53646 5.50661-1.16722 7.97852-1.90234 2.47192-0.73512 4.76083-1.57557 6.8789-2.53516 2.11807-0.95958 4.06542-2.03818 5.85547-3.24804 1.79005-1.20987 3.42229-2.55115 4.91016-4.03711 1.48786-1.48596 2.83148-3.11643 4.04297-4.9043 1.2115-1.78787 2.291-3.73203 3.25195-5.84766 0.96095-2.11559 1.80283-4.40192 2.53906-6.87109 0.73623-2.46913 1.36696-5.12219 1.9043-7.9707 0.53733-2.84852 0.98144-5.89277 1.3457-9.14649 0.36427-3.25372 0.64823-6.71569 0.86524-10.40039 0.43404-7.3694 0.59961-15.62672 0.59961-24.875v-59.251951c0-9.248315-0.16558-17.505564-0.59961-24.875-0.21702-3.684699-0.50097-7.146671-0.86524-10.400391s-0.80837-6.29793-1.3457-9.146484c-0.53734-2.848517-1.16807-5.501538-1.9043-7.970703-0.73623-2.469166-1.57811-4.755466-2.53906-6.871094-0.96095-2.115591-2.04045-4.059789-3.25195-5.847656-1.21149-1.787868-2.55511-3.418338-4.04297-4.904297-1.48787-1.485922-3.12011-2.827245-4.91016-4.03711-1.79005-1.209826-3.7374-2.288462-5.85547-3.248046-2.11807-0.959547-4.40698-1.800039-6.8789-2.535157-2.47191-0.73508-5.12694-1.365915-7.97852-1.902343-2.85158-0.536467-5.89919-0.980122-9.15625-1.34375-3.25707-0.363591-6.72373-0.646677-10.41211-0.863282-7.37676-0.433171-15.64146-0.597656-24.89844-0.597656h-75.369136zm37.683596 24.167969a90 90 0 0 1 90 90.000001 90 90 0 0 1-90 90 90 90 0 0 1-90.000002-90 90 90 0 0 1 90.000002-90.000001z" style="fill:url(#linearGradient937)"/>
  <path transform="matrix(.1348539 0 0 .1348539 -4.9712559 261.01666)" d="M 361.9375,-212 C 507.2348,-212 528,-191.28677 528,-46.125 V 70.125 C 528,215.28618 507.2348,236 361.9375,236 H 214.0625 C 68.7652,236 48,215.28618 48,70.125 V -46.125 C 48,-191.28677 68.7652,-212 214.0625,-212 Z" clip-path="url(#clipPath1082-3-361)" style="fill:none;opacity:.4;stroke-linecap:round;stroke-linejoin:round;stroke-width:8;stroke:url(#linearGradient1108)"/>
  <path class="cls-1" d="m56.377473 262.62114-16.816193-7.77497 1.351029 4.98182h-14.048835l1.351029-4.98182-16.816196 7.78071 16.827656 7.77498-1.351029-4.98184h14.048826l-1.35102 4.98184 16.804733-7.77498" style="fill:url(#k)"/>
  <path d="m33.866666 232.42763v60.41455h9.970761c19.593907 0 22.394175-2.79334 22.394175-22.36889v-15.67677c0-19.57563-2.800268-22.36889-22.394175-22.36889z" style="fill:#ffffff;opacity:.1"/>
  <path d="m23.870708 292.84218c-19.571859 0-22.368977-2.79325-22.368977-22.36885v-7.83836h64.657034v7.83836c0 19.5756-2.797117 22.36885-22.368976 22.36885z" style="fill:#ffffff;opacity:.1"/>
 </g>
</svg>

<svg xmlns="http://www.w3.org/2000/svg" xmlns:xlink="http://www.w3.org/1999/xlink" width="256" height="256" version="1.1" viewBox="0 0 67.73 67.73">
 <defs>
  <linearGradient id="linearGradient1108" x1="296" x2="296" y1="-212" y2="236" gradientUnits="userSpaceOnUse" xlink:href="#linearGradient1013"/>
  <linearGradient id="linearGradient1013">
   <stop offset="0" style="stop-color:#ffffff"/>
   <stop style="stop-color:#ffffff;stop-opacity:0.09803922" offset=".125"/>
   <stop style="stop-color:#000000;stop-opacity:0.09803922" offset=".925"/>
   <stop offset="1" style="stop-color:#000000;stop-opacity:0.49803922"/>
  </linearGradient>
  <clipPath id="clipPath1082-3-361" clipPathUnits="userSpaceOnUse">
   <path d="M 361.9375,-212 C 507.2348,-212 528,-191.28677 528,-46.125 V 70.125 C 528,215.28618 507.2348,236 361.9375,236 H 214.0625 C 68.7652,236 48,215.28618 48,70.125 V -46.125 C 48,-191.28677 68.7652,-212 214.0625,-212 Z" style="fill:#8c59d9"/>
  </clipPath>
  <linearGradient id="linearGradient4245">
   <stop offset="0" style="stop-color:#e8e8e8"/>
   <stop offset="1" style="stop-color:#f5f5f5"/>
  </linearGradient>
  <linearGradient id="linearGradient1044" x1="88" x2="256" y1="28" y2="284" gradientTransform="matrix(0.26970781,0,0,0.26970781,-7.1289179,220.5605)" gradientUnits="userSpaceOnUse" xlink:href="#linearGradient4245"/>
  <filter style="color-interpolation-filters:sRGB" id="filter4569" width="1.023" height="1.025" x="-.01" y="-.01">
   <feGaussianBlur stdDeviation="1.16"/>
  </filter>
  <filter style="color-interpolation-filters:sRGB" id="filter939" width="1.046" height="1.05" x="-.02" y="-.03">
   <feGaussianBlur stdDeviation="2.32"/>
  </filter>
  <linearGradient id="k" x1="412.95" x2="412.86" y1="648.08" y2="376.45" gradientTransform="matrix(0.05729538,0,0,0.05729538,4.5709881,233.28591)" gradientUnits="userSpaceOnUse">
   <stop offset="0" stop-color="#096fd2"/>
   <stop offset="1" stop-color="#0e8ee9"/>
  </linearGradient>
  <linearGradient id="l" x1="511.61" x2="511.61" y1="1026.9" y2="-.324" gradientTransform="matrix(0.24245987,0,0,0.24245987,-348.52983,19.133178)" gradientUnits="userSpaceOnUse">
   <stop offset="0" stop-color="#096fd2"/>
   <stop offset="1" stop-color="#0e8ee9"/>
  </linearGradient>
  <linearGradient id="linearGradient937" x1="511.61" x2="511.61" y1="1026.9" y2="-.324" gradientTransform="matrix(0.24245987,0,0,0.24245987,3.9410082,1.9357984)" gradientUnits="userSpaceOnUse" xlink:href="#l"/>
 </defs>
 <g transform="translate(0,-229.26666)">
  <path style="opacity:0.2;filter:url(#filter939)" d="m 162.53675,5.5680001 c 72.64865,0 83.03125,10.3566149 83.03125,82.9375049 v 58.125005 c 0,72.58059 -10.3826,82.9375 -83.03125,82.9375 H 88.599254 C 15.9506,229.56801 5.568,219.2111 5.568,146.63051 V 88.505505 c 0,-72.58089 10.3826,-82.9375049 83.031254,-82.9375049 z" transform="matrix(0.26970779,0,0,0.26970779,-1.9098094e-8,231.46531)"/>
  <path d="m 43.837429,232.42763 c 19.593907,0 22.394176,2.79326 22.394176,22.36889 v 15.67677 c 0,19.57555 -2.800269,22.36889 -22.394176,22.36889 H 23.89591 c -19.5939088,0 -22.394177,-2.79334 -22.394177,-22.36889 v -15.67677 c 0,-19.57563 2.8002682,-22.36889 22.394177,-22.36889 z" style="opacity:0.1;fill:none;stroke:#000000;stroke-width:1.07883108;stroke-linecap:round;stroke-linejoin:round"/>
  <path d="m 162.53675,3.5680001 c 72.64865,0 83.03125,10.3566149 83.03125,82.9375049 v 58.125005 c 0,72.58059 -10.3826,82.9375 -83.03125,82.9375 H 88.599254 C 15.9506,227.56801 5.568,217.2111 5.568,144.63051 V 86.505505 c 0,-72.58089 10.3826,-82.9375049 83.031254,-82.9375049 z" transform="matrix(0.26970779,0,0,0.26970779,-1.9098094e-8,231.46531)" style="opacity:0.1;filter:url(#filter4569)"/>
  <path style="fill:url(#linearGradient1044)" d="m 43.837427,232.42763 c 19.593907,0 22.394175,2.79326 22.394175,22.36889 v 15.67677 c 0,19.57555 -2.800268,22.36889 -22.394175,22.36889 h -19.94152 c -19.5939074,0 -22.3941756,-2.79334 -22.3941756,-22.36889 v -15.67677 c 0,-19.57563 2.8002682,-22.36889 22.3941756,-22.36889 z"/>
  <path style="fill:url(#linearGradient937)" d="M 90.396484 11.90625 C 81.139522 11.90625 72.872855 12.070659 65.496094 12.503906 C 61.807717 12.720473 58.341053 13.003597 55.083984 13.367188 C 51.826924 13.730778 48.779312 14.174471 45.927734 14.710938 C 43.076153 15.247366 40.421128 15.878201 37.949219 16.613281 C 35.477299 17.348399 33.188382 18.188891 31.070312 19.148438 C 28.952243 20.108022 27.004894 21.186658 25.214844 22.396484 C 23.424794 23.606349 21.792557 24.947672 20.304688 26.433594 C 18.816827 27.919553 17.473209 29.550023 16.261719 31.337891 C 15.050219 33.125758 13.970715 35.069956 13.009766 37.185547 C 12.048815 39.301175 11.206933 41.587475 10.470703 44.056641 C 9.7344731 46.525806 9.1037462 49.178827 8.5664062 52.027344 C 8.0290761 54.875898 7.584963 57.920108 7.2207031 61.173828 C 6.8564436 64.427548 6.5724786 67.88952 6.3554688 71.574219 C 5.9214286 78.943655 5.7558594 87.200904 5.7558594 96.449219 L 5.7558594 155.70117 C 5.7558594 164.94945 5.9214286 173.20677 6.3554688 180.57617 C 6.5724779 184.26087 6.8564432 187.72284 7.2207031 190.97656 C 7.5849627 194.23028 8.0290761 197.27453 8.5664062 200.12305 C 9.1037462 202.97156 9.7344731 205.62462 10.470703 208.09375 C 11.206933 210.56292 12.048815 212.84925 13.009766 214.96484 C 13.970715 217.08047 15.050219 219.02463 16.261719 220.8125 C 17.473209 222.60037 18.816827 224.23084 20.304688 225.7168 C 21.792557 227.20276 23.424794 228.54404 25.214844 229.75391 C 27.004894 230.96377 28.952243 232.04237 31.070312 233.00195 C 33.188382 233.96154 35.477299 234.80199 37.949219 235.53711 C 40.421128 236.27223 43.076153 236.90299 45.927734 237.43945 C 48.779312 237.97588 51.826924 238.41957 55.083984 238.7832 C 58.341053 239.14679 61.807717 239.42992 65.496094 239.64648 C 72.872855 240.07969 81.139522 240.24414 90.396484 240.24414 L 165.76562 240.24414 C 175.0226 240.24414 183.2873 240.07973 190.66406 239.64648 C 194.35244 239.42992 197.8191 239.14683 201.07617 238.7832 C 204.33323 238.41961 207.38084 237.97588 210.23242 237.43945 C 213.084 236.90299 215.73903 236.27223 218.21094 235.53711 C 220.68286 234.80199 222.97177 233.96154 225.08984 233.00195 C 227.20791 232.04237 229.15526 230.96377 230.94531 229.75391 C 232.73536 228.54404 234.3676 227.20276 235.85547 225.7168 C 237.34333 224.23084 238.68695 222.60037 239.89844 220.8125 C 241.10994 219.02463 242.18944 217.08047 243.15039 214.96484 C 244.11134 212.84925 244.95322 210.56292 245.68945 208.09375 C 246.42568 205.62462 247.05641 202.97156 247.59375 200.12305 C 248.13108 197.27453 248.57519 194.23028 248.93945 190.97656 C 249.30372 187.72284 249.58768 184.26087 249.80469 180.57617 C 250.23873 173.20677 250.4043 164.94945 250.4043 155.70117 L 250.4043 96.449219 C 250.4043 87.200904 250.23872 78.943655 249.80469 71.574219 C 249.58767 67.88952 249.30372 64.427548 248.93945 61.173828 C 248.57518 57.920108 248.13108 54.875898 247.59375 52.027344 C 247.05641 49.178827 246.42568 46.525806 245.68945 44.056641 C 244.95322 41.587475 244.11134 39.301175 243.15039 37.185547 C 242.18944 35.069956 241.10994 33.125758 239.89844 31.337891 C 238.68695 29.550023 237.34333 27.919553 235.85547 26.433594 C 234.3676 24.947672 232.73536 23.606349 230.94531 22.396484 C 229.15526 21.186658 227.20791 20.108022 225.08984 19.148438 C 222.97177 18.188891 220.68286 17.348399 218.21094 16.613281 C 215.73903 15.878201 213.084 15.247366 210.23242 14.710938 C 207.38084 14.174471 204.33323 13.730816 201.07617 13.367188 C 197.8191 13.003597 194.35244 12.720511 190.66406 12.503906 C 183.2873 12.070735 175.0226 11.90625 165.76562 11.90625 L 90.396484 11.90625 z M 128.08008 36.074219 A 90 90 0 0 1 218.08008 126.07422 A 90 90 0 0 1 128.08008 216.07422 A 90 90 0 0 1 38.080078 126.07422 A 90 90 0 0 1 128.08008 36.074219 z" transform="matrix(0.26458333,0,0,0.26458333,0,229.26666)"/>
  <path d="M 361.9375,-212 C 507.2348,-212 528,-191.28677 528,-46.125 V 70.125 C 528,215.28618 507.2348,236 361.9375,236 H 214.0625 C 68.7652,236 48,215.28618 48,70.125 V -46.125 C 48,-191.28677 68.7652,-212 214.0625,-212 Z" clip-path="url(#clipPath1082-3-361)" transform="matrix(0.1348539,0,0,0.1348539,-4.9712559,261.01666)" style="opacity:0.4;fill:none;stroke:url(#linearGradient1108);stroke-width:8;stroke-linecap:round;stroke-linejoin:round"/>
  <path style="fill:url(#k)" class="cls-1" d="m 56.377473,262.62114 -16.816193,-7.77497 1.351029,4.98182 H 26.863474 l 1.351029,-4.98182 -16.816196,7.78071 16.827656,7.77498 -1.351029,-4.98184 H 40.92376 l -1.35102,4.98184 16.804733,-7.77498"/>
  <path style="opacity:0.1;fill:#ffffff" d="m 33.866666,232.42763 v 60.41455 h 9.970761 c 19.593907,0 22.394175,-2.79334 22.394175,-22.36889 v -15.67677 c 0,-19.57563 -2.800268,-22.36889 -22.394175,-22.36889 z"/>
  <path style="opacity:0.1;fill:#ffffff" d="m 23.870708,292.84218 c -19.5718593,0 -22.3689766,-2.79325 -22.3689766,-22.36885 v -7.83836 H 66.158765 v 7.83836 c 0,19.5756 -2.797117,22.36885 -22.368976,22.36885 z"/>
 </g>
</svg>
